symbolic/24x24/apps/qt.svg

<svg xmlns="http://www.w3.org/2000/svg" width="24" height="24" version="1.1">
 <path style="opacity:.2" d="m3.8636364 3.5h17.136364s1 0 1 1v13l-2.863636 3h-17.136364s-1 0-1-1v-13z"/>
 <path style="fill:#00cc5c" d="m3.8636364 3h17.136364s1 0 1 1v13l-2.863636 3h-17.136364s-1 0-1-1v-13z"/>
 <path style="opacity:.2" d="m8.5175781 6.5c-2.77931 0-3.5175781 1.5-3.5175781 4.5s0.7252781 4.5 3.5175781 4.5h0.7929688l1.1562501 2 1.337891-0.5-1.091797-2c1.038995-0.5 1.287109-2 1.287109-4 0-3-0.703112-4.5-3.4824219-4.5zm5.4824219 0v2h-1v1h1v3.5c0 2 0.467967 2.5 1.935547 2.5h1.095703l-0.0625-1h-1.238281c-0.675351 0-0.730469-0.5-0.730469-1.5v-3.5h2v-1h-2v-2zm-5.4921875 1c2.0183375 0 2.4921925 1.1666667 2.4921875 3.5 0 2.333333-0.458556 3.5-2.4921875 3.5-2.0336313 0-2.5078125-1.166667-2.5078125-3.5 0-2.3333333 0.489475-3.5 2.5078125-3.5z"/>
 <path style="fill:#ffffff" d="m8.5175781 6c-2.77931 0-3.5175781 1.5-3.5175781 4.5s0.7252781 4.5 3.5175781 4.5h0.7929688l1.1562501 2 1.337891-0.5-1.091797-2c1.038995-0.5 1.287109-2 1.287109-4 0-3-0.703112-4.5-3.4824219-4.5zm5.4824219 0v2h-1v1h1v3.5c0 2 0.467967 2.5 1.935547 2.5h1.095703l-0.0625-1h-1.238281c-0.675351 0-0.730469-0.5-0.730469-1.5v-3.5h2v-1h-2v-2h-1zm-5.4921875 1c2.0183375 0 2.4921925 1.1666667 2.4921875 3.5 0 2.333333-0.458556 3.5-2.4921875 3.5-2.0336313 0-2.5078125-1.166667-2.5078125-3.5 0-2.3333333 0.489475-3.5 2.5078125-3.5z"/>
 <path style="fill:#ffffff;opacity:.2" d="m3.8632813 3-2.8632813 3v0.5l2.8632813-3h17.136719s1 0 1 1v-0.5c0-1-1-1-1-1z"/>
</svg>

<svg xmlns="http://www.w3.org/2000/svg" width="24" height="24"><path style="opacity:.2" d="M3.864 3.5H21s1 0 1 1v13l-2.864 3H2s-1 0-1-1v-13z"/><path style="fill:#00cc5c" d="M3.864 3H21s1 0 1 1v13l-2.864 3H2s-1 0-1-1V6z"/><path style="opacity:.2" d="M8.518 6.5C5.738 6.5 5 8 5 11s.725 4.5 3.518 4.5h.793l1.156 2 1.338-.5-1.092-2C11.752 14.5 12 13 12 11c0-3-.703-4.5-3.482-4.5zM14 6.5v2h-1v1h1V13c0 2 .468 2.5 1.936 2.5h1.095l-.062-1H15.73c-.675 0-.73-.5-.73-1.5V9.5h2v-1h-2v-2zm-5.492 1C10.526 7.5 11 8.667 11 11s-.459 3.5-2.492 3.5C6.474 14.5 6 13.333 6 11s.49-3.5 2.508-3.5z"/><path style="fill:#fff" d="M8.518 6C5.738 6 5 7.5 5 10.5S5.725 15 8.518 15h.793l1.156 2 1.338-.5-1.092-2c1.039-.5 1.287-2 1.287-4 0-3-.703-4.5-3.482-4.5zM14 6v2h-1v1h1v3.5c0 2 .468 2.5 1.936 2.5h1.095l-.062-1H15.73c-.675 0-.73-.5-.73-1.5V9h2V8h-2V6h-1zM8.508 7C10.526 7 11 8.167 11 10.5S10.541 14 8.508 14C6.474 14 6 12.833 6 10.5S6.49 7 8.508 7z"/><path style="fill:#fff;opacity:.2" d="M3.863 3 1 6v.5l2.863-3H21s1 0 1 1V4c0-1-1-1-1-1z"/></svg>
